X:1
T:Title
%%score { 1 | 2 }
L:1/8
M:3/4
K:F
V:1 treble nm="Grand Piano"
V:2 bass 
V:1
 z2 z2[Q:1/4=100] AA | A3 G Ac | d2 c2 cA | [EG]3 [GB] [FA][EG] |[M:2/4] A4 |[M:1/4] AA | %6
[M:3/4] A3 G Ac | d2 c2 cA | [EG]3 [GB] [FA][EG] |[M:2/4] F4 |[M:1/4] AA |[M:3/4] A2 F2 AA | %12
 A2 F2 FA | c3 d cA |[M:2/4] [EG]4 |[M:1/4] AA |[M:3/4] A2 F2 Ac | d2 c2 cA | [EG]3 [GB] [FA][EG] | %19
[M:2/4] F4 |] %20
V:2
 z2 z2 [F,CF][F,CF] | [F,CF]3 [F,B,F] [F,CF][F,A,F] | [F,B,F]2 [F,A,F]2 [F,A,F][F,CF] | %3
 [C,C]3 [C,C] [C,C][C,C] |[M:2/4] [F,CF]4 |[M:1/4] [F,CF][F,CF] | %6
[M:3/4] [F,CF]3 [F,B,F] [F,CF][F,A,F] | [F,B,F]2 [F,A,F]2 [F,A,F][F,CF] | %8
 [C,C]3 [C,C] [C,C][C,B,] |[M:2/4] [F,A,]4 |[M:1/4] [F,CF][F,CF] | %11
[M:3/4] [F,CF]2 [F,A,]2 [F,CF][F,CF] | [F,CF]2 [F,A,]2 [F,A,][F,CF] | %13
 [F,A,F]3 [F,B,F] [F,A,F][F,CF] |[M:2/4] [C,C]4 |[M:1/4] [F,CF][F,CF] | %16
[M:3/4] [F,CF]2 [F,A,]2 [F,CF][F,A,F] | [F,B,F]2 [F,A,F]2 [F,A,F][F,CF] | %18
 [C,C]3 [C,C] [C,C][C,B,] |[M:2/4] [F,A,]4 |] %20

